src/assets/icons/ico_painting.svg

<?xml version="1.0" encoding="utf-8"?>
<!-- Generator: Adobe Illustrator 26.0.1, SVG Export Plug-In . SVG Version: 6.00 Build 0)  -->
<svg version="1.1" id="Layer_1" xmlns="http://www.w3.org/2000/svg" xmlns:xlink="http://www.w3.org/1999/xlink" x="0px" y="0px"
	 viewBox="0 0 64 64" style="enable-background:new 0 0 64 64;" xml:space="preserve">
<style type="text/css">
	.st0{fill:#43BBC4;}
</style>
<path class="st0" d="M55.605,46.5967h-1.249v-1.3975c0.5596-0.6992,0.8691-1.5684,0.876-2.4688c0-0.002,0-0.0039,0-0.0068
	c-0.0068-1.3174-0.6699-2.5518-1.749-3.29v-1.5027c1.9653-0.2494,3.4956-1.9137,3.4956-3.9465c0-0.2764-0.2236-0.5-0.5-0.5H53.856
	c-0.3973,0-0.7743,0.0818-1.1242,0.2177c0.0774-0.274,0.131-0.5558,0.131-0.8486c0-0.835-0.3252-1.6201-0.9155-2.21L50.0918,28.79
	c-0.1953-0.1953-0.5117-0.1953-0.707,0c-1.2728,1.2733-1.4877,3.1917-0.681,4.7037c-0.0316-0.001-0.0611-0.0094-0.093-0.0094
	h-2.6226c-0.2764,0-0.5,0.2236-0.5,0.5c0,2.033,1.5317,3.6974,3.499,3.9465v1.5037c-0.8945,0.6152-1.5,1.5635-1.6768,2.6436
	c-0.1836,1.1143,0.1074,2.2393,0.8003,3.1182v1.4004h-5.1216v-5.6201c0-0.2764-0.2236-0.5-0.5-0.5h-4.3696
	c-0.2764,0-0.5,0.2236-0.5,0.5v5.6201h-1.248c-1.2402,0-2.2495,1.0098-2.2495,2.251c0,1.2393,1.0093,2.248,2.2495,2.248h2.092
	l-2.6487,8.0879c-0.0859,0.2617,0.0571,0.5449,0.3193,0.6309c0.0518,0.0166,0.1045,0.0244,0.1558,0.0244
	c0.2104,0,0.4062-0.1338,0.4751-0.3447l2.7504-8.3984h13.0029l2.7336,8.3975c0.0688,0.2119,0.2646,0.3457,0.4756,0.3457
	c0.0513,0,0.1035-0.0078,0.1548-0.0244c0.2627-0.0859,0.4062-0.3682,0.3208-0.6299l-2.6332-8.0889h2.035
	c1.2402,0,2.2495-1.0088,2.2495-2.248C57.8545,47.6064,56.8452,46.5967,55.605,46.5967z M55.937,34.4844
	c-0.2388,1.415-1.4727,2.4971-2.9541,2.4971h-1.2495v-0.375c0-1.1699,0.9521-2.1221,2.1226-2.1221H55.937z M50.0918,33.7363
	c-1.0479-1.0488-1.1558-2.6865-0.3237-3.8564l1.4722,1.4707c0.4014,0.4014,0.6226,0.9355,0.6226,1.5029s-0.2212,1.0996-0.6226,1.501
	l-0.2517,0.2521c-0.1577-0.1871-0.3326-0.3571-0.5295-0.5029L50.0918,33.7363z M46.5298,34.4844h2.0811
	c0.4316,0,0.8326,0.1311,1.168,0.3533l0.6017,0.6019c0.2219,0.3353,0.3528,0.7357,0.3528,1.1669v0.375h-1.2461
	C48.0039,36.9814,46.769,35.8994,46.5298,34.4844z M48.9883,44.6885c-0.585-0.6729-0.8369-1.5645-0.6914-2.4482
	c0.145-0.8818,0.6709-1.6475,1.4434-2.0996c0.1528-0.0898,0.2471-0.2539,0.2471-0.4316v-1.7275h1.2461h1.2495v1.7275
	c0,0.1787,0.0947,0.3428,0.249,0.4326c0.9189,0.5322,1.4932,1.5225,1.5,2.584c-0.0059,0.7236-0.2725,1.4189-0.7505,1.96
	c-0.0811,0.0908-0.1255,0.209-0.1255,0.3311v1.5801h-4.2451v-1.5801C49.1108,44.8965,49.0674,44.7793,48.9883,44.6885z
	 M38.6196,41.4766h3.3696v5.1201h-3.3696V41.4766z M55.605,50.0957H36.3716c-0.689,0-1.2495-0.5596-1.2495-1.248
	c0-0.6895,0.5605-1.251,1.2495-1.251h1.748h4.3696h6.1216h5.2451h1.749c0.689,0,1.2495,0.5615,1.2495,1.251
	C56.8545,49.5361,56.2939,50.0957,55.605,50.0957z"/>
<path class="st0" d="M24.8564,44.8486h-1.9741v-2.9971c0-2.2041-1.793-3.9971-3.9971-3.9971h-5.2471
	c-0.688,0-1.248-0.5596-1.248-1.248v-2.4648c0.0293-1.6826-1.2603-3.1221-2.9556-3.2793c-0.8481-0.0479-1.6992,0.2666-2.3164,0.8535
	c-0.6206,0.5869-0.9751,1.4141-0.9727,2.2686v13.1123c0,2.0002,1.4795,3.6471,3.3979,3.9385l-1.6406,8.205
	c-0.0293,0.1465,0.0088,0.2988,0.1035,0.415c0.0952,0.1152,0.2368,0.1826,0.3867,0.1826h1.748c0.2046,0,0.3882-0.124,0.4644-0.3145
	l3.3713-8.4277h6.3194l3.3699,8.4277c0.0762,0.1904,0.2598,0.3145,0.4644,0.3145h1.7495c0.1499,0,0.2915-0.0674,0.3867-0.1826
	c0.0947-0.1162,0.1328-0.2686,0.1035-0.415l-1.6299-8.1445h0.2646c0.854,0,1.6807-0.3545,2.2676-0.9717
	c0.5898-0.6211,0.9014-1.4658,0.853-2.3369C27.9702,46.1133,26.5464,44.8545,24.8564,44.8486z M9.8027,58.8379H9.0029l1.5483-7.7422
	h2.3481L9.8027,58.8379z M25.27,58.8379h-0.8013l-3.0957-7.7422h2.3477L25.27,58.8379z M26.5479,49.4346
	c-0.3994,0.4199-0.9614,0.6611-1.543,0.6611h-0.8745h-3.4956h-6.9966h-3.4971c-1.6519,0-2.9956-1.3457-2.9956-2.999V33.9834
	c-0.0015-0.5811,0.2388-1.1426,0.6611-1.542c0.394-0.375,0.9243-0.585,1.4521-0.585c0.0342,0,0.0688,0.001,0.103,0.0029
	c1.1577,0.1074,2.0488,1.1025,2.0283,2.2734v2.4736c0,1.2393,1.0083,2.248,2.248,2.248h5.2471c1.6528,0,2.9971,1.3447,2.9971,2.9971
	v5.2451c0,0.2764,0.2236,0.5,0.5,0.5s0.5-0.2236,0.5-0.5v-1.248h1.9819c0.0117,0,0.0234,0,0.0352,0
	c1.1475,0,2.124,0.8848,2.229,2.0117C27.1602,48.4395,26.9487,49.0137,26.5479,49.4346z"/>
<path class="st0" d="M54.8877,9.5986h-3.2919l-4.1847-5.249c-0.0947-0.1191-0.2383-0.1885-0.3901-0.1885c-0.0005,0-0.0005,0-0.001,0
	c-0.1514,0-0.2949,0.0684-0.3896,0.1865l-4.2174,5.251h-3.2616c-0.2764,0-0.5,0.2236-0.5,0.5v11.3652v4.3721
	c0,0.2764,0.2236,0.5,0.5,0.5h15.7363c0.2764,0,0.5-0.2236,0.5-0.5v-4.3721V10.0986C55.3877,9.8223,55.1641,9.5986,54.8877,9.5986z
	 M47.0186,5.4609l3.2984,4.1377h-6.6212L47.0186,5.4609z M54.3877,10.5986v10.1252l-1.8579-0.7473
	c-1.2935-0.5107-2.769-0.2061-3.7549,0.7734c-0.0005,0-0.0005,0.001-0.001,0.001c-0.9663,0.9678-2.5391,0.9658-3.5073-0.001
	c-0.9868-0.9805-2.4604-1.2842-3.7568-0.7725l-1.8584,0.7466V10.5986H54.3877z M54.3877,25.3359H39.6514v-3.5342l2.2285-0.8955
	c0.9243-0.3633,1.9771-0.1475,2.6807,0.5518c1.3564,1.3574,3.563,1.3564,4.9194,0.001c0.7041-0.6992,1.7573-0.918,2.6802-0.5537
	l2.2275,0.8965V25.3359z"/>
<path class="st0" d="M47.0205,18.4678c1.7222,0,3.123-1.4004,3.123-3.1221s-1.4009-3.123-3.123-3.123
	c-1.7227,0-3.124,1.4014-3.124,3.123S45.2979,18.4678,47.0205,18.4678z M47.0205,13.2227c1.1704,0,2.123,0.9521,2.123,2.123
	c0,1.1699-0.9526,2.1221-2.123,2.1221c-1.1714,0-2.124-0.9521-2.124-2.1221C44.8965,14.1748,45.8491,13.2227,47.0205,13.2227z"/>
<path class="st0" d="M32.9814,9.5361c-0.7115-0.2446-2.6779,1-5.6249,3.5186c-0.181-0.5583-0.4305-1.1067-0.7579-1.6358
	c-0.4062-0.6582-0.8936-1.2744-1.4478-1.8311c-1.9155-1.9248-4.582-3.0967-7.3159-3.2148c-2.689-0.1191-6.1172,0.8984-7.7173,3.4229
	c-0.875,1.3799-0.7554,3.2363,0.2852,4.4131c0.293,0.332,0.6265,0.6035,0.9492,0.8652c0.417,0.3398,0.811,0.6602,1.0757,1.0752
	c0.5908,0.9268-0.0522,1.9756-0.9341,2.582c-0.6528,0.4492-1.3281,0.9131-1.667,1.8096c-0.3052,0.8066-0.2744,1.7148,0.0938,2.7764
	c0.6265,1.8057,2.0684,3.0566,4.2871,3.7178c1.1035,0.3281,2.2192,0.4883,3.314,0.4883c2.8696,0,5.5933-1.1006,7.5537-3.1504
	c2.7242-2.8486,3.0763-6.3973,3.1219-7.2613c2.1755-2.434,4.4658-5.2474,5.0905-6.9291c0.0469-0.126,0.041-0.2656-0.0166-0.3877
	S33.1089,9.5801,32.9814,9.5361z M24.3525,23.6816c-2.4478,2.5596-6.2246,3.4785-9.8599,2.3945
	c-1.8921-0.5635-3.1123-1.6016-3.6274-3.0869c-0.292-0.8428-0.3252-1.5078-0.103-2.0947c0.228-0.6035,0.7002-0.9277,1.3325-1.3623
	c1.231-0.8467,2.1235-2.4346,1.1763-3.9199c-0.3516-0.5518-0.8276-0.9385-1.2881-1.3135c-0.3047-0.248-0.5923-0.4814-0.8311-0.752
	c-0.752-0.8506-0.8315-2.2031-0.1895-3.2158c1.3784-2.1738,4.5078-3.0684,6.8296-2.958c2.4858,0.1074,4.9097,1.1719,6.6499,2.9199
	c0.5005,0.5029,0.9395,1.0586,1.3062,1.6514c0.3685,0.5963,0.6118,1.2165,0.7635,1.8446c-0.5363,0.4722-1.1043,0.9864-1.6955,1.5314
	c0.3035-0.332,0.4935-0.7696,0.4935-1.2539c0-1.0293-0.8374-1.8662-1.8662-1.8662s-1.8662,0.8369-1.8662,1.8662
	s0.8374,1.8662,1.8662,1.8662c0.437,0,0.8342-0.1573,1.1526-0.4099c-1.0558,0.9783-2.1938,2.0673-3.4079,3.2626
	c-0.4323-0.0403-0.9671,0.1105-1.2974,0.2498c-1.1738,0.4922-1.8472,1.4609-1.8472,2.6582c0,1.6914-1.0967,2.0264-1.2163,2.0576
	c-0.2202,0.0518-0.3779,0.2451-0.3853,0.4707c-0.0068,0.2266,0.1387,0.4287,0.3555,0.4941
	c0.9946,0.3008,1.9004,0.4512,2.7134,0.4512c1.0391,0,1.9268-0.2461,2.6533-0.7354c1.3166-0.888,1.6626-2.2843,1.7479-2.783
	c0.3734-0.3738,1.6187-1.6331,3.101-3.2368C26.7346,19.8007,26.0494,21.9075,24.3525,23.6816z M24.3096,14.0664
	c0,0.4775-0.3887,0.8662-0.8662,0.8662s-0.8662-0.3887-0.8662-0.8662s0.3887-0.8662,0.8662-0.8662S24.3096,13.5889,24.3096,14.0664z
	 M21.0717,19.776l1.835,1.8077c-0.093,0.4325-0.3959,1.4128-1.3115,2.0247c-0.8301,0.5547-1.9722,0.6953-3.4009,0.4258
	c0.4629-0.4824,0.8491-1.2354,0.8491-2.3408c0-0.5723,0.2197-1.041,0.6528-1.3926C20.2137,19.8808,20.8459,19.7667,21.0717,19.776z
	 M23.4395,20.7041l-1.3882-1.3672c5.6509-5.5518,8.4414-7.6143,9.731-8.3809C29.8975,14.0762,24.8184,19.3076,23.4395,20.7041z"/>
<path class="st0" d="M15.8398,12.459c0-1.0293-0.8374-1.8662-1.8662-1.8662s-1.8662,0.8369-1.8662,1.8662
	s0.8374,1.8662,1.8662,1.8662S15.8398,13.4883,15.8398,12.459z M13.1074,12.459c0-0.4775,0.3887-0.8662,0.8662-0.8662
	s0.8662,0.3887,0.8662,0.8662s-0.3887,0.8662-0.8662,0.8662S13.1074,12.9365,13.1074,12.459z"/>
<path class="st0" d="M19.062,12.959c1.0288,0,1.8662-0.8369,1.8662-1.8662s-0.8374-1.8662-1.8662-1.8662
	c-1.0293,0-1.8667,0.8369-1.8667,1.8662S18.0327,12.959,19.062,12.959z M19.062,10.2266c0.4775,0,0.8662,0.3887,0.8662,0.8662
	s-0.3887,0.8662-0.8662,0.8662c-0.478,0-0.8667-0.3887-0.8667-0.8662S18.584,10.2266,19.062,10.2266z"/>
<path class="st0" d="M14.6372,19.9111c-1.0288,0-1.8662,0.8369-1.8662,1.8662s0.8374,1.8662,1.8662,1.8662
	s1.8662-0.8369,1.8662-1.8662S15.666,19.9111,14.6372,19.9111z M14.6372,22.6436c-0.4775,0-0.8662-0.3887-0.8662-0.8662
	s0.3887-0.8662,0.8662-0.8662s0.8662,0.3887,0.8662,0.8662S15.1147,22.6436,14.6372,22.6436z"/>
</svg>

<?xml version="1.0" encoding="UTF-8" standalone="no"?>
<!DOCTYPE svg PUBLIC "-//W3C//DTD SVG 1.1//EN" "http://www.w3.org/Graphics/SVG/1.1/DTD/svg11.dtd">
<svg width="100%" height="100%" viewBox="0 0 65 65" version="1.1" xmlns="http://www.w3.org/2000/svg" xmlns:xlink="http://www.w3.org/1999/xlink" xml:space="preserve" xmlns:serif="http://www.serif.com/" style="fill-rule:evenodd;clip-rule:evenodd;stroke-linejoin:round;stroke-miterlimit:2;">
    <g transform="matrix(1,0,0,1,-219,-161)">
        <g transform="matrix(0.0625,0,0,0.0833333,219.535,161.712)">
            <rect id="ico_painting" x="0" y="0" width="1024" height="768" style="fill:none;"/>
            <g id="ico_painting1" serif:id="ico_painting">
                <g id="ico_painting.svg" transform="matrix(16,0,0,12,512,384)">
                    <g transform="matrix(1,0,0,1,-32,-32)">
                        <g>
                            <path d="M55.605,46.597L54.356,46.597L54.356,45.199C54.916,44.5 55.225,43.631 55.232,42.73L55.232,42.724C55.225,41.406 54.562,40.172 53.483,39.434L53.483,37.931C55.448,37.682 56.979,36.017 56.979,33.984C56.979,33.708 56.755,33.484 56.479,33.484L53.856,33.484C53.459,33.484 53.082,33.566 52.732,33.702C52.809,33.428 52.863,33.146 52.863,32.854C52.863,32.019 52.538,31.233 51.947,30.644L50.092,28.79C49.896,28.595 49.58,28.595 49.385,28.79C48.112,30.063 47.897,31.982 48.704,33.494C48.672,33.493 48.643,33.484 48.611,33.484L45.988,33.484C45.712,33.484 45.488,33.708 45.488,33.984C45.488,36.017 47.02,37.682 48.987,37.931L48.987,39.435C48.093,40.05 47.487,40.998 47.31,42.078C47.127,43.192 47.418,44.317 48.111,45.196L48.111,46.597L42.989,46.597L42.989,40.977C42.989,40.7 42.766,40.477 42.489,40.477L38.12,40.477C37.843,40.477 37.62,40.7 37.62,40.977L37.62,46.597L36.372,46.597C35.131,46.597 34.122,47.606 34.122,48.848C34.122,50.087 35.131,51.096 36.372,51.096L38.464,51.096L35.815,59.184C35.729,59.445 35.872,59.728 36.134,59.814C36.186,59.831 36.239,59.839 36.29,59.839C36.5,59.839 36.696,59.705 36.765,59.494L39.515,51.096L52.518,51.096L55.252,59.493C55.321,59.705 55.517,59.839 55.728,59.839C55.779,59.839 55.831,59.831 55.882,59.815C56.145,59.729 56.289,59.446 56.203,59.185L53.57,51.096L55.605,51.096C56.845,51.096 57.854,50.087 57.854,48.848C57.855,47.606 56.845,46.597 55.605,46.597ZM55.937,34.484C55.698,35.899 54.464,36.982 52.983,36.982L51.733,36.982L51.733,36.607C51.733,35.437 52.686,34.484 53.856,34.484L55.937,34.484ZM50.092,33.736C49.044,32.688 48.936,31.05 49.768,29.88L51.24,31.351C51.642,31.752 51.863,32.286 51.863,32.853C51.863,33.421 51.642,33.953 51.24,34.354L50.989,34.607C50.831,34.419 50.656,34.249 50.459,34.104L50.092,33.736ZM46.53,34.484L48.611,34.484C49.043,34.484 49.444,34.616 49.779,34.838L50.381,35.44C50.603,35.775 50.733,36.175 50.733,36.606L50.733,36.981L49.487,36.981C48.004,36.981 46.769,35.899 46.53,34.484ZM48.988,44.689C48.403,44.016 48.151,43.124 48.297,42.24C48.442,41.359 48.968,40.593 49.74,40.141C49.893,40.051 49.987,39.887 49.987,39.709L49.987,37.982L52.483,37.982L52.483,39.709C52.483,39.888 52.578,40.052 52.732,40.142C53.651,40.674 54.225,41.664 54.232,42.726C54.226,43.449 53.96,44.145 53.481,44.686C53.4,44.777 53.356,44.895 53.356,45.017L53.356,46.597L49.111,46.597L49.111,45.017C49.111,44.897 49.067,44.779 48.988,44.689ZM38.62,41.477L41.989,41.477L41.989,46.597L38.62,46.597L38.62,41.477ZM55.605,50.096L36.372,50.096C35.683,50.096 35.122,49.536 35.122,48.848C35.122,48.158 35.683,47.597 36.372,47.597L55.605,47.597C56.294,47.597 56.854,48.158 56.854,48.848C56.855,49.536 56.294,50.096 55.605,50.096Z" style="fill:rgb(26,91,87);fill-rule:nonzero;"/>
                            <path d="M24.856,44.849L22.882,44.849L22.882,41.851C22.882,39.647 21.089,37.854 18.885,37.854L13.638,37.854C12.95,37.854 12.39,37.295 12.39,36.606L12.39,34.142C12.419,32.459 11.13,31.019 9.435,30.862C8.586,30.814 7.735,31.129 7.118,31.716C6.498,32.303 6.143,33.13 6.145,33.984L6.145,47.097C6.145,49.097 7.625,50.744 9.543,51.035L7.903,59.24C7.873,59.387 7.912,59.539 8.006,59.655C8.101,59.77 8.243,59.838 8.393,59.838L10.141,59.838C10.346,59.838 10.529,59.714 10.605,59.523L13.977,51.096L20.296,51.096L23.666,59.523C23.742,59.714 23.926,59.838 24.13,59.838L25.88,59.838C26.03,59.838 26.171,59.77 26.267,59.655C26.361,59.539 26.399,59.387 26.37,59.24L24.74,51.096L25.005,51.096C25.859,51.096 26.685,50.741 27.272,50.124C27.862,49.503 28.174,48.658 28.125,47.787C27.97,46.113 26.546,44.855 24.856,44.849ZM9.803,58.838L9.003,58.838L10.551,51.096L12.899,51.096L9.803,58.838ZM25.27,58.838L24.469,58.838L21.373,51.096L23.721,51.096L25.27,58.838ZM26.548,49.435C26.148,49.855 25.586,50.096 25.005,50.096L10.141,50.096C8.489,50.096 7.145,48.75 7.145,47.097L7.145,33.983C7.144,33.402 7.384,32.841 7.807,32.441C8.201,32.066 8.731,31.856 9.259,31.856C9.293,31.856 9.327,31.857 9.362,31.859C10.519,31.967 11.41,32.962 11.39,34.133L11.39,36.606C11.39,37.846 12.398,38.854 13.638,38.854L18.885,38.854C20.538,38.854 21.882,40.199 21.882,41.851L21.882,47.097C21.882,47.373 22.106,47.597 22.382,47.597C22.659,47.597 22.882,47.373 22.882,47.097L22.882,45.849L24.899,45.849C26.047,45.849 27.023,46.733 27.128,47.86C27.16,48.44 26.949,49.014 26.548,49.435Z" style="fill:rgb(26,91,87);fill-rule:nonzero;"/>
                            <path d="M54.888,9.599L51.596,9.599L47.411,4.35C47.316,4.23 47.173,4.161 47.021,4.161L47.02,4.161C46.869,4.161 46.725,4.229 46.63,4.348L42.413,9.599L39.151,9.599C38.875,9.599 38.651,9.822 38.651,10.099L38.651,25.836C38.651,26.112 38.875,26.336 39.151,26.336L54.888,26.336C55.164,26.336 55.388,26.112 55.388,25.836L55.388,10.099C55.388,9.822 55.164,9.599 54.888,9.599ZM47.019,5.461L50.317,9.599L43.696,9.599L47.019,5.461ZM54.388,10.599L54.388,20.724L52.53,19.976C51.236,19.466 49.761,19.77 48.775,20.75C48.774,20.75 48.774,20.751 48.774,20.751C47.808,21.719 46.235,21.717 45.267,20.75C44.28,19.769 42.806,19.466 41.51,19.977L39.651,20.724L39.651,10.599L54.388,10.599ZM54.388,25.336L39.651,25.336L39.651,21.802L41.88,20.906C42.804,20.543 43.857,20.759 44.561,21.458C45.917,22.815 48.124,22.814 49.48,21.459C50.184,20.76 51.237,20.541 52.16,20.905L54.388,21.802L54.388,25.336Z" style="fill:rgb(26,91,87);fill-rule:nonzero;"/>
                            <path d="M47.021,18.468C48.743,18.468 50.143,17.067 50.143,15.346C50.143,13.624 48.743,12.223 47.021,12.223C45.298,12.223 43.896,13.624 43.896,15.346C43.896,17.067 45.298,18.468 47.021,18.468ZM47.021,13.223C48.191,13.223 49.143,14.175 49.143,15.346C49.143,16.516 48.191,17.468 47.021,17.468C45.849,17.468 44.896,16.516 44.896,15.346C44.897,14.175 45.849,13.223 47.021,13.223Z" style="fill:rgb(26,91,87);fill-rule:nonzero;"/>
                            <path d="M32.981,9.536C32.27,9.291 30.304,10.536 27.357,13.055C27.176,12.496 26.926,11.948 26.599,11.419C26.192,10.761 25.705,10.145 25.151,9.588C23.235,7.663 20.569,6.491 17.835,6.373C15.146,6.254 11.718,7.271 10.118,9.796C9.243,11.176 9.362,13.032 10.403,14.209C10.696,14.541 11.029,14.813 11.352,15.074C11.769,15.414 12.163,15.734 12.428,16.149C13.019,17.076 12.376,18.125 11.494,18.731C10.841,19.181 10.165,19.645 9.827,20.541C9.521,21.348 9.552,22.256 9.92,23.317C10.547,25.123 11.989,26.374 14.208,27.035C15.311,27.363 16.427,27.523 17.522,27.523C20.391,27.523 23.115,26.423 25.075,24.373C27.799,21.524 28.151,17.976 28.197,17.112C30.373,14.678 32.663,11.864 33.288,10.183C33.335,10.057 33.329,9.917 33.271,9.795C33.213,9.673 33.109,9.58 32.981,9.536ZM24.353,23.682C21.905,26.241 18.128,27.16 14.493,26.076C12.601,25.513 11.38,24.475 10.865,22.989C10.573,22.146 10.54,21.481 10.762,20.895C10.99,20.291 11.462,19.967 12.095,19.532C13.326,18.686 14.218,17.098 13.271,15.612C12.919,15.06 12.443,14.674 11.983,14.299C11.678,14.051 11.391,13.817 11.152,13.547C10.4,12.696 10.32,11.344 10.962,10.331C12.341,8.157 15.47,7.263 17.792,7.373C20.278,7.48 22.702,8.545 24.442,10.293C24.942,10.796 25.381,11.352 25.748,11.944C26.116,12.541 26.36,13.161 26.511,13.789C25.975,14.261 25.407,14.775 24.816,15.32C25.119,14.988 25.31,14.551 25.31,14.066C25.31,13.037 24.472,12.2 23.443,12.2C22.415,12.2 21.577,13.037 21.577,14.066C21.577,15.096 22.415,15.933 23.443,15.933C23.88,15.933 24.278,15.775 24.596,15.523C23.54,16.501 22.402,17.59 21.188,18.785C20.756,18.745 20.221,18.896 19.891,19.035C18.717,19.527 18.043,20.496 18.043,21.693C18.043,23.385 16.947,23.72 16.827,23.751C16.607,23.803 16.449,23.996 16.442,24.222C16.435,24.448 16.58,24.65 16.797,24.716C17.792,25.016 18.698,25.167 19.511,25.167C20.55,25.167 21.437,24.921 22.164,24.432C23.481,23.543 23.827,22.147 23.912,21.648C24.285,21.275 25.531,20.015 27.013,18.412C26.735,19.801 26.049,21.908 24.353,23.682ZM24.31,14.066C24.31,14.544 23.921,14.933 23.443,14.933C22.966,14.933 22.577,14.544 22.577,14.066C22.577,13.589 22.966,13.2 23.443,13.2C23.921,13.2 24.31,13.589 24.31,14.066ZM21.072,19.776L22.907,21.584C22.814,22.016 22.511,22.997 21.595,23.608C20.765,24.163 19.623,24.304 18.194,24.034C18.657,23.552 19.043,22.799 19.043,21.693C19.043,21.121 19.263,20.652 19.696,20.301C20.214,19.881 20.846,19.767 21.072,19.776ZM23.44,20.704L22.051,19.337C27.702,13.785 30.493,11.723 31.782,10.956C29.898,14.076 24.818,19.308 23.44,20.704Z" style="fill:rgb(26,91,87);fill-rule:nonzero;"/>
                            <path d="M15.84,12.459C15.84,11.43 15.002,10.593 13.974,10.593C12.945,10.593 12.107,11.43 12.107,12.459C12.107,13.488 12.945,14.325 13.974,14.325C15.002,14.325 15.84,13.488 15.84,12.459ZM13.107,12.459C13.107,11.982 13.496,11.593 13.974,11.593C14.451,11.593 14.84,11.982 14.84,12.459C14.84,12.936 14.451,13.325 13.974,13.325C13.496,13.325 13.107,12.937 13.107,12.459Z" style="fill:rgb(26,91,87);fill-rule:nonzero;"/>
                            <path d="M19.062,12.959C20.091,12.959 20.928,12.122 20.928,11.093C20.928,10.064 20.091,9.227 19.062,9.227C18.033,9.227 17.195,10.064 17.195,11.093C17.195,12.122 18.033,12.959 19.062,12.959ZM19.062,10.227C19.54,10.227 19.928,10.615 19.928,11.093C19.928,11.57 19.54,11.959 19.062,11.959C18.584,11.959 18.195,11.57 18.195,11.093C18.195,10.615 18.584,10.227 19.062,10.227Z" style="fill:rgb(26,91,87);fill-rule:nonzero;"/>
                            <path d="M14.637,19.911C13.608,19.911 12.771,20.748 12.771,21.777C12.771,22.807 13.608,23.644 14.637,23.644C15.666,23.644 16.503,22.807 16.503,21.777C16.503,20.748 15.666,19.911 14.637,19.911ZM14.637,22.644C14.16,22.644 13.771,22.255 13.771,21.777C13.771,21.3 14.16,20.911 14.637,20.911C15.115,20.911 15.503,21.3 15.503,21.777C15.503,22.255 15.115,22.644 14.637,22.644Z" style="fill:rgb(26,91,87);fill-rule:nonzero;"/>
                        </g>
                    </g>
                </g>
            </g>
        </g>
    </g>
</svg>
